svg/playangle.svg

<?xml version="1.0" encoding="UTF-8" standalone="no"?>
<!-- Created with Inkscape (http://www.inkscape.org/) -->

<svg
   xmlns:dc="http://purl.org/dc/elements/1.1/"
   xmlns:cc="http://creativecommons.org/ns#"
   xmlns:rdf="http://www.w3.org/1999/02/22-rdf-syntax-ns#"
   xmlns:svg="http://www.w3.org/2000/svg"
   xmlns="http://www.w3.org/2000/svg"
   xmlns:sodipodi="http://sodipodi.sourceforge.net/DTD/sodipodi-0.dtd"
   xmlns:inkscape="http://www.inkscape.org/namespaces/inkscape"
   width="210mm"
   height="210mm"
   viewBox="0 0 744.09449 744.09448"
   id="svg2"
   version="1.1"
   inkscape:version="0.91 r13725"
   sodipodi:docname="playangle.svg">
  <defs
     id="defs4" />
  <sodipodi:namedview
     id="base"
     pagecolor="#ffadad"
     bordercolor="#666666"
     borderopacity="1.0"
     inkscape:pageopacity="0"
     inkscape:pageshadow="2"
     inkscape:zoom="0.49497475"
     inkscape:cx="354.06817"
     inkscape:cy="502.50296"
     inkscape:document-units="px"
     inkscape:current-layer="layer1"
     showgrid="false"
     showguides="true"
     inkscape:window-width="1280"
     inkscape:window-height="751"
     inkscape:window-x="0"
     inkscape:window-y="1"
     inkscape:window-maximized="1" />
  <metadata
     id="metadata7">
    <rdf:RDF>
      <cc:Work
         rdf:about="">
        <dc:format>image/svg+xml</dc:format>
        <dc:type
           rdf:resource="http://purl.org/dc/dcmitype/StillImage" />
        <dc:title></dc:title>
      </cc:Work>
    </rdf:RDF>
  </metadata>
  <g
     inkscape:label="Layer 1"
     inkscape:groupmode="layer"
     id="layer1"
     transform="translate(0,-308.26772)">
    <g
       id="g4202"
       transform="matrix(5.5477322,0,0,5.5477322,-561.52826,-395.09939)">
      <path
         id="path4150"
         d="m 130.86133,148.31641 -0.0566,55.68554 -0.0566,55.6875 48.2539,-27.79492 48.25586,-27.79297 -48.19922,-27.89258 -48.19726,-27.89257 z m 3.99219,6.92968 84.40625,48.84766 c -28.16804,16.22449 -56.33601,32.4491 -84.50391,48.67383 0.0326,-32.50716 0.0651,-65.01432 0.0977,-97.52149 z"
         style="fill:#ffffff;fill-opacity:1;stroke:none;stroke-width:37.79999924;stroke-miterlimit:4;stroke-dasharray:none;stroke-opacity:1"
         inkscape:connector-curvature="0" />
      <path
         id="path4148-3"
         d="m 120.95198,129.97005 -0.0566,55.68751 -0.0566,55.68553 13.66797,-7.87304 0.0254,-25.08398 0.0586,-55.6875 48.19727,27.89258 21.71289,12.56641 12.84766,-7.4004 -48.19727,-27.89453 -48.19922,-27.89258 z"
         style="fill:#ffffff;fill-opacity:1;stroke:none;stroke-width:37.79999924;stroke-miterlimit:4;stroke-dasharray:none;stroke-opacity:1"
         inkscape:connector-curvature="0" />
    </g>
  </g>
</svg>

<?xml version="1.0" encoding="UTF-8" standalone="no"?>
<!-- Created with Inkscape (http://www.inkscape.org/) -->

<svg
   xmlns:dc="http://purl.org/dc/elements/1.1/"
   xmlns:cc="http://creativecommons.org/ns#"
   xmlns:rdf="http://www.w3.org/1999/02/22-rdf-syntax-ns#"
   xmlns:svg="http://www.w3.org/2000/svg"
   xmlns="http://www.w3.org/2000/svg"
   xmlns:sodipodi="http://sodipodi.sourceforge.net/DTD/sodipodi-0.dtd"
   xmlns:inkscape="http://www.inkscape.org/namespaces/inkscape"
   width="210mm"
   height="297mm"
   viewBox="0 0 744.09448819 1052.3622047"
   id="svg2"
   version="1.1"
   inkscape:version="0.91 r13725"
   sodipodi:docname="playangle.svg">
  <defs
     id="defs4" />
  <sodipodi:namedview
     id="base"
     pagecolor="#ffadad"
     bordercolor="#666666"
     borderopacity="1.0"
     inkscape:pageopacity="0"
     inkscape:pageshadow="2"
     inkscape:zoom="2.8"
     inkscape:cx="164.56191"
     inkscape:cy="837.18645"
     inkscape:document-units="px"
     inkscape:current-layer="layer1"
     showgrid="false"
     showguides="true"
     inkscape:window-width="1280"
     inkscape:window-height="751"
     inkscape:window-x="0"
     inkscape:window-y="1"
     inkscape:window-maximized="1" />
  <metadata
     id="metadata7">
    <rdf:RDF>
      <cc:Work
         rdf:about="">
        <dc:format>image/svg+xml</dc:format>
        <dc:type
           rdf:resource="http://purl.org/dc/dcmitype/StillImage" />
        <dc:title></dc:title>
      </cc:Work>
    </rdf:RDF>
  </metadata>
  <g
     inkscape:label="Layer 1"
     inkscape:groupmode="layer"
     id="layer1">
    <path
       style="fill:#ffffff;fill-opacity:1;stroke:none;stroke-width:37.79999924;stroke-miterlimit:4;stroke-dasharray:none;stroke-opacity:1"
       d="M 130.86133 148.31641 L 130.80469 204.00195 L 130.74805 259.68945 L 179.00195 231.89453 L 227.25781 204.10156 L 179.05859 176.20898 L 130.86133 148.31641 z M 134.85352 155.24609 L 219.25977 204.09375 C 191.09173 220.31824 162.92376 236.54285 134.75586 252.76758 C 134.78846 220.26042 134.82092 187.75326 134.85352 155.24609 z "
       id="path4150" />
    <path
       inkscape:connector-curvature="0"
       style="fill:#ffffff;fill-opacity:1;stroke:none;stroke-width:37.79999924;stroke-miterlimit:4;stroke-dasharray:none;stroke-opacity:1"
       d="m 120.95198,129.97005 -0.0566,55.68751 -0.0566,55.68553 13.66797,-7.87304 0.0254,-25.08398 0.0586,-55.6875 48.19727,27.89258 21.71289,12.56641 12.84766,-7.4004 -48.19727,-27.89453 -48.19922,-27.89258 z"
       id="path4148-3" />
  </g>
</svg>
